X:34
T:Careful with the Mixer
M:C|
C:© Paul Gitlitz 2007
R:Swing
N:Thee tailgate party at Fiddle Tunes was a fun-meter in the red event.
K:G
"G"dg2g- gg(dg)|"A7/C#"^cg2g- gc(gc) |"C"=cg2g- gc(gc)|"G"BcdB G2B2|!
"G"dg2g- gg(dg)|"A7/C#"^cg2g- "G"gc(gc) |"C"=cg2g- gc(gc)|"G"BcdB G4:|!
"G"gb2a- "G/B"agfe|"C"fc2c- "C/E"c3e|"D7"fa2g- "D7/F#"gfef|"Em"eB2B- "Em/B"B3A|!
"G"GBdg- ggfg|"C"ec2c- c3c|"D7"cdef- ffef|"Em"eB2B- "Em/B"B3A|!
"G"gb2a- "G/B"agfe|"C"fc2c- "C/E"c3e|"D7"fa2g- "D7/F#"gfef|"Em"eB2B- "Em/B"B3A|!
"G"GBdg- ggfg|"C"ec2c- c4|"Em"eg2e- "D"edBA|"G"G8|]
